assets/images/partner3.svg

<svg width="113" height="112" viewBox="0 0 113 112" fill="none" xmlns="http://www.w3.org/2000/svg">
<g clip-path="url(#clip0_3282_11749)">
<path d="M52.5842 12.3968C56.1544 11.8281 60.724 11.7937 62.4747 12.2968C65.6003 13.2031 66.6997 15.8532 64.9145 18.169C63.8118 19.5819 62.2679 20.3504 58.2152 21.4945C50.6923 23.5725 45.1991 26.5948 40.5261 31.192C37.0937 34.5141 35.2018 37.6708 34.6539 40.9239C34.4816 41.8303 34.4816 53.175 34.6539 66.0981C34.8606 82.3088 34.8262 89.8938 34.5849 90.4968C33.9991 92.0063 32.9032 91.703 29.8465 89.3217C21.2242 82.4742 15.6243 73.4797 13.3602 62.7415C12.602 59.0473 12.602 50.8592 13.3946 47.5026C15.6243 37.7362 21.3621 28.5729 28.9849 22.6007C36.0289 17.0628 43.5829 13.8062 52.5842 12.4002V12.3968ZM81.4699 20.5537C81.8145 20.216 82.259 19.9506 82.5003 19.9506C83.2205 19.9506 86.2085 22.4319 88.9894 25.4197C98.9832 36.0924 102.557 46.6308 100.637 59.6538C99.5002 67.4076 97.5772 73.1799 94.2792 78.9522C92.3563 82.2399 87.1009 87.4436 82.807 90.2935C77.176 94.0533 70.0321 97.141 64.2942 98.2817C61.3409 98.8882 56.12 98.9882 55.1275 98.485C54.2659 98.0129 54.2659 96.6034 55.1619 95.2284C56.0166 93.85 56.2923 93.719 61.1686 92.4749C66.8721 91.0344 69.0706 89.9248 71.6449 87.1403C75.4253 83.1462 79.478 76.4331 80.7462 72.1702C81.2976 70.392 81.2976 68.276 81.0563 46.8306C80.8842 33.9765 80.7806 22.9695 80.8151 22.3319C80.884 21.6944 81.1597 20.9224 81.4699 20.5537ZM56.2923 24.6822C57.0849 24.1791 57.974 23.9757 59.4524 23.9757C62.1301 23.9757 63.5395 24.7821 64.5355 26.9291C65.3625 28.7762 65.3625 28.8107 65.7726 55.5253C65.9105 65.0229 66.1517 73.0765 66.324 73.4108C66.6652 74.2172 68.3814 75.0236 69.1395 74.7548C70.1699 74.3861 73.43 71.4672 75.5942 68.9825C76.7314 67.673 77.8273 66.6012 78.0685 66.6012C78.8611 66.6012 78.5854 69.0824 77.4482 72.2047C75.9733 76.3332 73.6712 80.5271 71.5415 83.0807C67.2821 88.1121 59.8659 90.8656 56.5335 88.6497C53.9213 86.9714 53.6835 85.5964 53.0632 69.8888C52.6497 58.8818 52.8909 36.1924 53.4423 31.0576C53.8214 27.77 54.7794 25.6196 56.2923 24.6822ZM40.116 54.7189C44.8889 52.3686 50.4889 54.8877 51.7227 59.8881C52.4464 62.807 51.447 65.626 48.9761 67.6764C46.5362 69.7544 43.445 70.1576 40.5606 68.8137C39.6336 68.3794 38.4309 67.6075 37.9174 67.0699C34.3093 63.3136 35.443 57.0002 40.116 54.7189ZM57.3571 110.343C26.9035 110.343 2.21875 85.6584 2.21875 55.2048C2.21875 24.7511 26.9035 0.0664062 57.3571 0.0664062C87.8108 0.0664062 112.496 24.7511 112.496 55.2048C112.496 85.6584 87.8108 110.343 57.3571 110.343ZM57.3571 104.83C84.7644 104.83 106.982 82.6121 106.982 55.2048C106.982 27.7975 84.7644 5.58026 57.3571 5.58026C29.9499 5.58026 7.7326 27.7975 7.7326 55.2048C7.7326 82.6121 29.9499 104.83 57.3571 104.83Z" fill="#333333"/>
</g>
<defs>
<clipPath id="clip0_3282_11749">
<rect width="112" height="112" fill="white" transform="translate(0.5)"/>
</clipPath>
</defs>
</svg>

<svg width="113" height="112" viewBox="0 0 113 112" fill="none" xmlns="http://www.w3.org/2000/svg"><g clip-path="url(#a)"><path d="M52.584 12.397c3.57-.569 8.14-.603 9.89-.1 3.126.906 4.226 3.556 2.44 5.872-1.102 1.413-2.646 2.181-6.699 3.325-7.523 2.079-13.016 5.1-17.689 9.698-3.432 3.322-5.324 6.479-5.872 9.732-.172.906-.172 12.251 0 25.174.207 16.21.172 23.796-.07 24.399-.585 1.51-1.68 1.206-4.738-1.175-8.622-6.848-14.222-15.842-16.486-26.58-.758-3.695-.758-11.883.035-15.24 2.23-9.766 7.967-18.93 15.59-24.901 7.044-5.538 14.598-8.795 23.6-10.2v-.004Zm28.886 8.157c.344-.338.789-.603 1.03-.603.72 0 3.709 2.48 6.49 5.469 9.993 10.672 13.567 21.21 11.647 34.234-1.137 7.754-3.06 13.526-6.358 19.298-1.923 3.288-7.178 8.492-11.472 11.341-5.631 3.76-12.775 6.848-18.513 7.989-2.953.606-8.174.706-9.166.203-.862-.472-.862-1.882.034-3.257.855-1.378 1.13-1.509 6.007-2.753 5.703-1.44 7.902-2.55 10.476-5.335 3.78-3.994 7.833-10.707 9.101-14.97.552-1.778.552-3.894.31-25.34-.172-12.853-.275-23.86-.24-24.498.068-.638.344-1.41.654-1.778Zm-25.178 4.128c.793-.503 1.682-.706 3.16-.706 2.678 0 4.087.806 5.084 2.953.826 1.847.826 1.882 1.237 28.596.138 9.498.379 17.551.551 17.886.341.806 2.057 1.613 2.816 1.344 1.03-.369 4.29-3.288 6.454-5.772 1.137-1.31 2.233-2.382 2.475-2.382.792 0 .516 2.481-.62 5.604-1.476 4.128-3.778 8.322-5.907 10.876-4.26 5.031-11.676 7.785-15.009 5.569-2.612-1.679-2.85-3.054-3.47-18.761-.413-11.007-.172-33.697.38-38.831.378-3.288 1.336-5.438 2.85-6.376ZM40.116 54.72c4.773-2.35 10.373.169 11.607 5.17.723 2.918-.276 5.737-2.747 7.787-2.44 2.078-5.531 2.482-8.415 1.138-.927-.435-2.13-1.206-2.644-1.744-3.608-3.756-2.474-10.07 2.199-12.351Zm17.241 55.624c-30.453 0-55.138-24.685-55.138-55.138C2.219 24.75 26.903.066 57.357.066c30.454 0 55.139 24.685 55.139 55.139 0 30.453-24.685 55.138-55.139 55.138Zm0-5.513c27.407 0 49.625-22.218 49.625-49.625S84.764 5.58 57.357 5.58 7.733 27.798 7.733 55.205 29.95 104.83 57.357 104.83Z" fill="#333"/></g><defs><clipPath id="a"><path fill="#fff" transform="translate(.5)" d="M0 0h112v112H0z"/></clipPath></defs></svg>
